!!!OTL: Crambambuli.
!!!OTL-incipit: CRAMBAMBULI DAS IST DER TITEL
!!!COM: Crescent. Koromandel.
!!!ARE: Europa, Mitteleuropa, Deutschland
!!!SCT: F0523
!!!TXL: @@DE
!!!YEM: Copyright 1995, estate of Helmut Schaffrath.
**kern	**text
*ICvox	*
*clefG2	*
*M2/4	*
*k[f#c#]	*
*D:	*
!LO:TX:a:t=Fröhlich und bequem.	!
!LO:TX:a:t=P:only the highest voice encoded:problem	!
{8a	Cram-
=1	=1
4dd/	-bambu-
8cc#/L	.
8bJ	.
=2	=2
4.a	-li,
8a	das
=3	=3
8b/L	iſt
8aJ	.
8b/L	der
8cc#J	.
=4	=4
4dd/	Ti-
8a}	-tel
{8a	des
=5	=5
8b/	Tranks,
8a	der
8g	ſich
8f#	bei
=6	=6
4a	uns
4a	be-
=7	=7
4.a}	-währt,
{8a	er
=8	=8
4dd/	iſt
8cc#/L	ein
8bJ	.
=9	=9
4.a	ganʒ
8a	pro-
=10	=10
8b/L	-ba-
8aJ	.
8b/L	-tes
8cc#J	.
=11	=11
4dd/	Mittel,
8a}	.
{8a	wenn
=12	=12
8b/	uns
8a	was
8g	Bö-
8f#	-ſes
=13	=13
4a	wi-
4a	-der-
=14	=14
4.a}	-fährt.
{8a	Des
=15	=15
8f#	Abends
8a	.
8a	und
8a	des
=16	=16
8b/	Morgens
8a	.
8a}	früh
{8a	trink'
=17	=17
8f#	ich
8a	mein
8a	Glas
8a	Crambambuli,
=18	=18
8b/	.
8a	.
8a}	.
{8a	Crambimbam-
=19	=19
4dd/	.
4ee/	.
=20	=20
8.ff#/	-bambu-
16dd/	.
8dd/}	-li,
{8dd/	Crambambu-
=21	=21
4ee/	.
4cc#/	.
=22	=22
4.dd/}	-li!
{8a	Des
=23	=23
8f#	Abends
8a	.
8a	und
8a	des
=24	=24
8b/	Morgens
8a	.
8a}	früh
{8a	trink'
=25	=25
8f#	ich
8a	mein
8a	Glas
8a	Crambambuli,
=26	=26
8b/	.
8a	.
8a}	.
{8a	Crambimbam-
=27	=27
4dd/	.
4ee/	.
=28	=28
8.ff#/	-bambu-
16dd/	.
8dd/}	-li,
{8dd/	Crambambu-
=29	=29
4ee/	.
4cc#/	.
=30	=30
4.dd/}	-li!
==;	==
!!!AGN: Studenten -, Trink - Lied
!!!ONB: ESAC (Essen Associative Code) Database: FINK
!!!AMT: simple duple
!!!AIN: vox
!!!EED: Helmut Schaffrath
!!!EEV: 1.0
!!!GTL: Studentenlieder
!!Text: Studentenlied
!!!source: Musikalischer Hausschatz der Deutschen. Eine Sammlung von über 1000 Liedern und Gesängen mit Singstimmen und Klavierbegleitung. Leipzig, Litterarisches Verlags-Haus.
!!!page: 334
!!!URL-scan: https://www.digitale-sammlungen.de/en/view/bsb11144622?page=311
!!!ENC: Anna Maria Matuszewska
!!!EEV: 2024/02/08
*-	*-
